; generated by SuperSlicer 2.3.56 on 2021-08-21 at 17:56:15 UTC


;
;

;
;
; TODO: check the size of the extruder and the y-bar clearance. Optimize & test supports.

; external perimeters extrusion width = 0.40mm
; perimeters extrusion width = 0.40mm
; infill extrusion width = 0.40mm
; solid infill extrusion width = 0.40mm
; top infill extrusion width = 0.42mm
; first layer extrusion width = 0.44mm

; object:{"name":"ab-bn-30-logo-insert","id":"ab-bn-30-logo-insert.stl id:0 copy 0","object_center":[60.025000,60.025000,0.000000],"boundingbox_center":[60.025000,60.025000,0.975000],"boundingbox_size":[13.383919,12.017776,1.950001]}
; plater:{"center":[60.025000,60.025000,0.000000],"boundingbox_center":[60.025000,60.025000,0.975000],"boundingbox_size":[13.383919,12.017776,1.950001]}

;TYPE:Custom
print_start

M190 S110  ; set bed temperature and wait


M190 S110  ; set bed temperature and wait
M109 S250  ; set print head temperature and wait

g28

G1 Z0.2 F500.0
G92 E0.0

G1 Z0.2
G1 X80 E12.0 F500.0 ; intro line

G92 E0.0
M107
G21 ; set units to millimeters
G90 ; use absolute coordinates
M83 ; use relative distances for extrusion
; Filament gcode
;LAYER_CHANGE
;Z:0.2375
;HEIGHT:0.2375
;BEFORE_LAYER_CHANGE
;0.2375


G1 Z0.237500 F21000.000
;AFTER_LAYER_CHANGE
;0.2375
G1 E-2.20000 F3600.000
G1 Z1.117500 F21000.000
G1 X52.575 Y50.528
G1 Z0.237500
G1 E2.20000 F2700.000
;TYPE:Skirt
;WIDTH:0.4
G1 F1800.000
M204 S1000
G1 X53.476 Y49.590 E0.03889
G1 X54.554 Y48.873 E0.03871
G1 X55.702 Y48.421 E0.03692
G1 X56.920 Y48.216 E0.03692
G1 X65.051 Y48.204 E0.24321
G1 X65.911 Y48.267 E0.02578
G1 X66.752 Y48.454 E0.02578
G1 X67.558 Y48.759 E0.02578
G1 X68.311 Y49.178 E0.02578
G1 X68.997 Y49.701 E0.02578
G1 X69.599 Y50.318 E0.02578
G1 X70.106 Y51.014 E0.02578
G1 X70.508 Y51.777 E0.02578
G1 X70.849 Y52.800 E0.03225
G1 X72.261 Y58.990 E0.18990
G1 X72.373 Y59.699 E0.02146
G1 X72.392 Y60.609 E0.02722
G1 X72.270 Y61.517 E0.02740
G1 X72.011 Y62.395 E0.02740
G1 X71.624 Y63.219 E0.02722
G1 X67.382 Y69.641 E0.23019
G1 X66.866 Y70.199 E0.02272
G1 X66.289 Y70.683 E0.02254
G1 X65.656 Y71.091 E0.02254
G1 X64.970 Y71.418 E0.02272
G1 X64.002 Y71.714 E0.03027
G1 X63.004 Y71.841 E0.03009
G1 X54.842 Y71.844 E0.24409
G1 X54.116 Y71.779 E0.02182
G1 X53.402 Y71.627 E0.02182
G1 X52.713 Y71.388 E0.02182
G1 X52.058 Y71.067 E0.02182
G1 X51.081 Y70.373 E0.03584
G1 X50.263 Y69.497 E0.03584
G1 X49.639 Y68.481 E0.03566
G1 X49.228 Y67.356 E0.03584
G1 X47.787 Y61.049 E0.19349
G1 X47.666 Y60.226 E0.02488
G1 X47.665 Y59.340 E0.02650
G1 X47.794 Y58.469 E0.02632
G1 X48.049 Y57.627 E0.02632
G1 X48.426 Y56.832 E0.02632
G1 X52.542 Y50.578 E0.22393
M204 S3000
G1 X52.831 Y50.768 F21000.000
G1 F1800.000
M204 S1000
G1 X52.844 Y50.749 E0.00071
G1 X53.698 Y49.859 E0.03687
G1 X54.724 Y49.177 E0.03687
G1 X55.813 Y48.752 E0.03495
G1 X56.960 Y48.563 E0.03478
G1 X65.051 Y48.552 E0.24199
G1 X65.862 Y48.612 E0.02431
G1 X66.661 Y48.790 E0.02449
G1 X67.421 Y49.080 E0.02431
G1 X68.135 Y49.479 E0.02449
G1 X68.784 Y49.979 E0.02449
G1 X69.353 Y50.567 E0.02449
G1 X69.831 Y51.232 E0.02449
G1 X70.205 Y51.954 E0.02431
G1 X70.511 Y52.887 E0.02937
G1 X71.920 Y59.061 E0.18939
G1 X72.026 Y59.725 E0.02012
G1 X72.043 Y60.596 E0.02606
G1 X71.925 Y61.465 E0.02623
G1 X71.673 Y62.305 E0.02623
G1 X71.295 Y63.091 E0.02606
G1 X67.122 Y69.407 E0.22642
G1 X66.636 Y69.937 E0.02152
G1 X66.090 Y70.397 E0.02134
G1 X65.485 Y70.787 E0.02152
G1 X64.836 Y71.096 E0.02152
G1 X63.924 Y71.374 E0.02850
G1 X62.973 Y71.493 E0.02868
G1 X54.847 Y71.495 E0.24302
G1 X54.148 Y71.432 E0.02099
G1 X53.468 Y71.283 E0.02082
G1 X52.812 Y71.051 E0.02082
G1 X52.189 Y70.740 E0.02082
G1 X51.280 Y70.083 E0.03356
G1 X50.519 Y69.258 E0.03356
G1 X49.937 Y68.299 E0.03356
G1 X49.558 Y67.243 E0.03356
G1 X48.128 Y60.978 E0.19217
G1 X48.015 Y60.215 E0.02309
G1 X48.012 Y59.367 E0.02536
G1 X48.138 Y58.528 E0.02536
G1 X48.386 Y57.723 E0.02519
G1 X48.754 Y56.960 E0.02536
G1 X52.798 Y50.819 E0.21992
M204 S3000
G1 X53.088 Y51.009 F21000.000
G1 F1800.000
M204 S1000
G1 X53.115 Y50.969 E0.00145
G1 X53.921 Y50.127 E0.03486
G1 X54.892 Y49.483 E0.03486
G1 X55.915 Y49.086 E0.03283
G1 X56.999 Y48.909 E0.03283
G1 X65.051 Y48.901 E0.24083
G1 X65.819 Y48.958 E0.02304
G1 X66.571 Y49.127 E0.02304
G1 X67.290 Y49.403 E0.02304
G1 X67.961 Y49.782 E0.02304
G1 X68.569 Y50.254 E0.02304
G1 X69.102 Y50.810 E0.02304
G1 X69.548 Y51.438 E0.02304
G1 X69.898 Y52.124 E0.02304
G1 X70.173 Y52.970 E0.02659
G1 X71.679 Y59.758 E0.20798
G1 X71.695 Y60.591 E0.02490
G1 X71.580 Y61.410 E0.02473
G1 X71.337 Y62.206 E0.02490
G1 X70.972 Y62.954 E0.02490
G1 X66.862 Y69.175 E0.22301
G1 X66.404 Y69.677 E0.02033
G1 X65.889 Y70.113 E0.02016
G1 X65.323 Y70.479 E0.02016
G1 X64.710 Y70.772 E0.02033
G1 X63.848 Y71.034 E0.02693
G1 X62.955 Y71.145 E0.02693
G1 X54.852 Y71.147 E0.24234
G1 X54.192 Y71.086 E0.01982
G1 X53.545 Y70.943 E0.01982
G1 X52.921 Y70.719 E0.01982
G1 X52.325 Y70.416 E0.01999
G1 X51.481 Y69.796 E0.03131
G1 X50.777 Y69.021 E0.03131
G1 X50.237 Y68.118 E0.03148
G1 X49.890 Y67.130 E0.03131
G1 X48.469 Y60.908 E0.19088
G1 X48.363 Y60.202 E0.02135
G1 X48.360 Y59.392 E0.02422
G1 X48.481 Y58.591 E0.02422
G1 X48.721 Y57.824 E0.02405
G1 X49.078 Y57.097 E0.02422
G1 X53.055 Y51.060 E0.21623
M204 S3000
G1 X53.344 Y51.250 F21000.000
G1 F1800.000
M204 S1000
G1 X53.382 Y51.193 E0.00206
G1 X54.141 Y50.397 E0.03286
G1 X55.061 Y49.788 E0.03303
G1 X56.021 Y49.418 E0.03075
G1 X57.036 Y49.256 E0.03075
G1 X65.051 Y49.249 E0.23972
G1 X65.771 Y49.303 E0.02161
G1 X66.481 Y49.464 E0.02177
G1 X67.155 Y49.725 E0.02161
G1 X67.783 Y50.082 E0.02161
G1 X68.352 Y50.527 E0.02161
G1 X68.849 Y51.051 E0.02161
G1 X69.268 Y51.647 E0.02177
G1 X69.591 Y52.293 E0.02161
G1 X69.835 Y53.054 E0.02389
G1 X71.331 Y59.787 E0.20629
G1 X71.346 Y60.575 E0.02357
G1 X71.236 Y61.355 E0.02357
G1 X71.001 Y62.107 E0.02357
G1 X70.647 Y62.817 E0.02373
G1 X66.600 Y68.944 E0.21961
G1 X66.174 Y69.414 E0.01899
G1 X65.686 Y69.829 E0.01916
G1 X65.153 Y70.175 E0.01899
G1 X64.580 Y70.448 E0.01899
G1 X63.768 Y70.694 E0.02536
G1 X62.927 Y70.798 E0.02536
G1 X54.863 Y70.799 E0.24118
G1 X54.231 Y70.739 E0.01899
G1 X53.617 Y70.600 E0.01883
G1 X53.025 Y70.384 E0.01883
G1 X52.462 Y70.092 E0.01899
G1 X51.683 Y69.508 E0.02912
G1 X51.034 Y68.782 E0.02912
G1 X50.540 Y67.943 E0.02912
G1 X50.222 Y67.023 E0.02912
G1 X48.810 Y60.837 E0.18977
G1 X48.712 Y60.188 E0.01965
G1 X48.708 Y59.416 E0.02308
G1 X48.823 Y58.659 E0.02291
G1 X49.057 Y57.923 E0.02308
G1 X49.402 Y57.233 E0.02308
G1 X53.311 Y51.300 E0.21250
M204 S3000
G1 X53.601 Y51.491 F21000.000
G1 F1800.000
M204 S1000
G1 X53.654 Y51.411 E0.00288
G1 X54.366 Y50.663 E0.03089
G1 X55.228 Y50.094 E0.03089
G1 X56.124 Y49.751 E0.02869
G1 X57.067 Y49.604 E0.02853
G1 X65.051 Y49.598 E0.23879
G1 X65.724 Y49.649 E0.02020
G1 X66.388 Y49.800 E0.02035
G1 X67.017 Y50.045 E0.02020
G1 X67.603 Y50.381 E0.02020
G1 X68.133 Y50.799 E0.02020
G1 X68.599 Y51.295 E0.02035
G1 X68.983 Y51.850 E0.02020
G1 X69.281 Y52.456 E0.02020
G1 X69.496 Y53.135 E0.02130
G1 X70.983 Y59.811 E0.20457
G1 X70.998 Y60.560 E0.02240
G1 X70.892 Y61.296 E0.02224
G1 X70.665 Y62.010 E0.02240
G1 X70.327 Y62.673 E0.02224
G1 X66.338 Y68.714 E0.21655
G1 X65.489 Y69.541 E0.03543
G1 X64.452 Y70.124 E0.03559
G1 X63.695 Y70.354 E0.02366
G1 X62.910 Y70.449 E0.02366
G1 X54.868 Y70.450 E0.24051
G1 X53.693 Y70.260 E0.03559
G1 X52.608 Y69.772 E0.03559
G1 X51.895 Y69.229 E0.02680
G1 X51.298 Y68.553 E0.02696
G1 X50.846 Y67.774 E0.02696
G1 X50.556 Y66.920 E0.02696
G1 X49.060 Y60.171 E0.20675
G1 X49.055 Y59.443 E0.02177
G1 X49.167 Y58.719 E0.02193
G1 X49.391 Y58.026 E0.02177
G1 X49.722 Y57.378 E0.02177
G1 X53.568 Y51.541 E0.20906
M204 S3000
G1 X53.858 Y51.732 F21000.000
G1 F1800.000
M204 S1000
G1 X53.924 Y51.632 E0.00357
G1 X54.589 Y50.931 E0.02893
G1 X55.397 Y50.399 E0.02893
G1 X56.226 Y50.085 E0.02651
G1 X57.102 Y49.951 E0.02651
G1 X65.050 Y49.946 E0.23771
G1 X65.682 Y49.995 E0.01896
G1 X66.295 Y50.136 E0.01880
G1 X66.880 Y50.366 E0.01880
G1 X67.424 Y50.681 E0.01880
G1 X67.916 Y51.073 E0.01880
G1 X68.343 Y51.534 E0.01880
G1 X68.698 Y52.053 E0.01880
G1 X68.971 Y52.619 E0.01880
G1 X69.158 Y53.220 E0.01880
G1 X70.636 Y59.837 E0.20279
G1 X70.650 Y60.541 E0.02107
G1 X70.548 Y61.234 E0.02092
G1 X70.332 Y61.904 E0.02107
G1 X70.009 Y62.525 E0.02092
G1 X66.077 Y68.482 E0.21349
G1 X65.286 Y69.258 E0.03314
G1 X64.325 Y69.800 E0.03299
G1 X63.616 Y70.014 E0.02213
G1 X62.887 Y70.101 E0.02198
G1 X54.878 Y70.102 E0.23952
G1 X53.775 Y69.920 E0.03345
G1 X52.754 Y69.453 E0.03360
G1 X52.203 Y69.038 E0.02062
G1 X51.729 Y68.544 E0.02047
G1 X51.340 Y67.975 E0.02062
G1 X51.050 Y67.355 E0.02047
G1 X49.496 Y60.709 E0.20413
G1 X49.393 Y59.890 E0.02470
G1 X49.452 Y59.061 E0.02485
G1 X49.671 Y58.264 E0.02470
G1 X50.041 Y57.526 E0.02470
G1 X53.825 Y51.782 E0.20571
M204 S3000
G1 X54.115 Y51.973 F21000.000
G1 F1800.000
M204 S1000
G1 X54.194 Y51.853 E0.00432
G1 X54.810 Y51.200 E0.02684
G1 X55.560 Y50.707 E0.02684
G1 X56.323 Y50.420 E0.02438
G1 X57.129 Y50.299 E0.02438
G1 X65.050 Y50.295 E0.23692
G1 X65.626 Y50.339 E0.01728
G1 X66.194 Y50.469 E0.01743
G1 X66.736 Y50.684 E0.01743
G1 X67.240 Y50.977 E0.01743
G1 X67.694 Y51.343 E0.01743
G1 X68.087 Y51.772 E0.01743
G1 X68.412 Y52.256 E0.01743
G1 X68.659 Y52.778 E0.01728
G1 X70.288 Y59.860 E0.21732
G1 X70.302 Y60.520 E0.01975
G1 X70.206 Y61.168 E0.01960
G1 X69.999 Y61.795 E0.01975
G1 X69.692 Y62.374 E0.01960
G1 X65.815 Y68.252 E0.21059
G1 X65.088 Y68.971 E0.03059
G1 X64.198 Y69.475 E0.03059
G1 X63.543 Y69.673 E0.02047
G1 X62.868 Y69.753 E0.02033
G1 X54.889 Y69.753 E0.23865
G1 X53.856 Y69.581 E0.03131
G1 X52.908 Y69.138 E0.03131
G1 X52.407 Y68.754 E0.01888
G1 X51.975 Y68.293 E0.01888
G1 X51.624 Y67.769 E0.01888
G1 X51.364 Y67.199 E0.01873
G1 X49.833 Y60.617 E0.20210
G1 X49.741 Y59.856 E0.02293
G1 X49.800 Y59.097 E0.02279
G1 X50.008 Y58.359 E0.02293
G1 X50.358 Y57.676 E0.02293
G1 X54.082 Y52.023 E0.20246
M204 S3000
G1 X54.357 Y52.227 F21000.000
G1 F1800.000
M204 S1000
G1 X54.827 Y51.655 E0.02215
G1 X55.407 Y51.194 E0.02215
G1 X56.070 Y50.864 E0.02215
G1 X56.783 Y50.681 E0.02201
G1 X65.050 Y50.643 E0.24727
G1 X66.002 Y50.776 E0.02876
G1 X66.879 Y51.158 E0.02862
G1 X67.624 Y51.766 E0.02876
G1 X68.175 Y52.549 E0.02862
G1 X68.475 Y53.360 E0.02587
G1 X69.880 Y59.523 E0.18907
G1 X69.959 Y60.144 E0.01870
G1 X69.865 Y61.096 E0.02862
G1 X69.517 Y61.987 E0.02862
G1 X65.693 Y67.823 E0.20867
G1 X65.179 Y68.437 E0.02394
G1 X64.544 Y68.916 E0.02380
G1 X63.818 Y69.241 E0.02380
G1 X63.032 Y69.395 E0.02394
G1 X54.806 Y69.401 E0.24604
G1 X53.898 Y69.228 E0.02766
G1 X53.066 Y68.825 E0.02766
G1 X52.597 Y68.454 E0.01787
G1 X52.197 Y68.010 E0.01787
G1 X51.878 Y67.505 E0.01787
G1 X51.649 Y66.953 E0.01787
G1 X50.162 Y60.491 E0.19833
G1 X50.099 Y59.504 E0.02958
G1 X50.249 Y58.722 E0.02380
G1 X50.571 Y57.995 E0.02380
G1 X54.324 Y52.277 E0.20454
M204 S3000
G1 X54.615 Y52.469 F21000.000
G1 F1800.000
M204 S1000
G1 X54.668 Y52.390 E0.00284
G1 X55.097 Y51.879 E0.01997
G1 X55.625 Y51.469 E0.01997
G1 X56.226 Y51.178 E0.01997
G1 X56.875 Y51.020 E0.01997
G1 X65.050 Y50.992 E0.24450
G1 X65.919 Y51.114 E0.02624
G1 X66.721 Y51.470 E0.02624
G1 X67.395 Y52.032 E0.02624
G1 X67.889 Y52.757 E0.02624
G1 X68.138 Y53.451 E0.02207
G1 X69.540 Y59.599 E0.18860
G1 X69.612 Y60.210 E0.01840
G1 X69.517 Y61.052 E0.02533
G1 X69.200 Y61.842 E0.02546
G1 X65.382 Y67.660 E0.20813
G1 X64.914 Y68.208 E0.02154
G1 X64.338 Y68.633 E0.02141
G1 X63.682 Y68.919 E0.02141
G1 X62.974 Y69.050 E0.02154
G1 X54.829 Y69.053 E0.24359
G1 X53.993 Y68.892 E0.02546
G1 X53.230 Y68.515 E0.02546
G1 X52.812 Y68.179 E0.01604
G1 X52.455 Y67.773 E0.01617
G1 X52.173 Y67.317 E0.01604
G1 X51.972 Y66.820 E0.01604
G1 X50.503 Y60.421 E0.19634
G1 X50.449 Y59.493 E0.02781
G1 X50.590 Y58.800 E0.02115
G1 X50.881 Y58.155 E0.02115
G1 X54.583 Y52.519 E0.20167
; INIT printing object ab-bn-30-logo-insert.stl id:0 copy 0
G1 E-1.76000 F3600.000
;WIPE_START
G1 F16800.000
M204 S3000
G1 X54.668 Y52.390 E-0.03152
G1 X55.097 Y51.879 E-0.13595
G1 X55.625 Y51.469 E-0.13595
G1 X56.132 Y51.224 E-0.11459
;WIPE_END
G1 E-0.02200 F3600.000
G1 Z1.117500 F21000.000
; printing object ab-bn-30-logo-insert.stl id:0 copy 0
G1 X63.916 Y54.775
G1 Z0.237500
G1 E2.20000 F2700.000
;TYPE:Internal perimeter
;WIDTH:0.44
G1 F1800.000
M204 S1000
G1 X57.014 Y65.275 E0.41888
G1 X56.134 Y65.275 E0.02931
G1 X63.037 Y54.775 E0.41887
G1 X63.856 Y54.775 E0.02732
M204 S3000
G1 X64.637 Y54.386 F21000.000
;TYPE:External perimeter
G1 F1800.000
M204 S1000
G1 X57.224 Y65.664 E0.44992
G1 X55.413 Y65.664 E0.06035
G1 X62.827 Y54.386 E0.44991
G1 X64.577 Y54.386 E0.05836
M204 S3000
G1 X64.321 Y54.631 F21000.000
G1 X63.386 Y54.954
;TYPE:Gap fill
;WIDTH:0.34344
G1 F1800.000
M204 S1000
G1 X63.310 Y55.048 E0.00303
;WIDTH:0.428562
G1 X63.235 Y55.143 E0.00391
G1 X60.025 Y60.025 E0.18905
G1 X56.816 Y64.907 E0.18905
G1 X56.740 Y65.002 E0.00391
;WIDTH:0.343298
G1 X56.665 Y65.096 E0.00303
G1 E-1.76000 F3600.000
;WIPE_START
G1 F16800.000
M204 S3000
G1 X56.740 Y65.002 E-0.02459
;WIPE_END
G1 E-0.41541 F3600.000
G1 Z0.637500 F21000.000
G1 X61.544 Y65.275
G1 Z0.237500
G1 E2.20000 F2700.000
;TYPE:Internal perimeter
;WIDTH:0.44
G1 F1800.000
M204 S1000
G1 X64.430 Y60.884 E0.17515
G1 X65.310 Y60.884 E0.02934
G1 X62.423 Y65.275 E0.17516
G1 X61.604 Y65.275 E0.02733
M204 S3000
G1 X60.823 Y65.664 F21000.000
;TYPE:External perimeter
G1 F1800.000
M204 S1000
G1 X64.220 Y60.495 E0.20619
G1 X66.031 Y60.495 E0.06038
G1 X62.633 Y65.664 E0.20620
G1 X60.883 Y65.664 E0.05836
M204 S3000
G1 X61.139 Y65.419 F21000.000
G1 X62.074 Y65.096
;TYPE:Gap fill
;WIDTH:0.343566
G1 F1800.000
M204 S1000
G1 X62.150 Y65.002 E0.00303
;WIDTH:0.42901
G1 X62.225 Y64.907 E0.00392
G1 X63.427 Y63.080 E0.07085
G1 X64.628 Y61.252 E0.07085
G1 X64.703 Y61.157 E0.00392
;WIDTH:0.343804
G1 X64.779 Y61.063 E0.00304
G1 E-1.76000 F3600.000
;WIPE_START
G1 F16800.000
M204 S3000
G1 X64.703 Y61.157 E-0.02463
;WIPE_END
G1 E-0.41537 F3600.000
G1 Z0.637500 F21000.000
G1 X58.507 Y54.775
G1 Z0.237500
G1 E2.20000 F2700.000
;TYPE:Internal perimeter
;WIDTH:0.44
G1 F1800.000
M204 S1000
G1 X58.244 Y55.175 E0.01595
G1 X55.620 Y59.166 E0.15922
G1 X54.740 Y59.166 E0.02933
G1 X57.627 Y54.775 E0.17517
G1 X58.447 Y54.775 E0.02734
M204 S3000
G1 X59.228 Y54.386 F21000.000
;TYPE:External perimeter
G1 F1800.000
M204 S1000
G1 X58.569 Y55.389 E0.03999
G1 X55.830 Y59.555 E0.16622
G1 X54.019 Y59.555 E0.06037
G1 X57.417 Y54.386 E0.20621
G1 X59.168 Y54.386 E0.05838
M204 S3000
G1 X58.912 Y54.631 F21000.000
G1 X57.976 Y54.954
;TYPE:Gap fill
;WIDTH:0.343799
G1 F1800.000
M204 S1000
G1 X57.900 Y55.048 E0.00304
;WIDTH:0.42902
G1 X57.825 Y55.143 E0.00392
G1 X56.623 Y56.971 E0.07086
G1 X55.422 Y58.798 E0.07086
G1 X55.346 Y58.893 E0.00392
;WIDTH:0.343682
G1 X55.271 Y58.987 E0.00303
; INIT stop printing object ab-bn-30-logo-insert.stl id:0 copy 0
M106 S165.75
;LAYER_CHANGE
;Z:0.4375
;HEIGHT:0.2
;BEFORE_LAYER_CHANGE
;0.4375


; stop printing object ab-bn-30-logo-insert.stl id:0 copy 0
M204 S3000
G1 Z0.437500 F21000.000
;AFTER_LAYER_CHANGE
;0.4375
M140 S105 ; set bed temperature
; INIT printing object ab-bn-30-logo-insert.stl id:0 copy 0
G1 E-2.20000 F3600.000
G1 Z0.837500 F21000.000
; printing object ab-bn-30-logo-insert.stl id:0 copy 0
G1 X56.422 Y65.120
G1 Z0.437500
G1 E2.20000 F2700.000
;TYPE:Internal perimeter
;WIDTH:0.4
G1 F6000.000
M204 S4000
G1 X63.120 Y54.930 E0.33073
G1 X63.628 Y54.930 E0.01379
G1 X56.930 Y65.120 E0.33074
G1 X56.482 Y65.120 E0.01215
M204 S3000
G1 X57.123 Y65.477 F21000.000
G1 F6000.000
M204 S4000
G1 X55.760 Y65.477 E0.03696
G1 X62.928 Y54.573 E0.35391
G1 X64.291 Y54.573 E0.03697
G1 X57.156 Y65.427 E0.35229
M204 S3000
G1 X55.098 Y65.834 F21000.000
;TYPE:External perimeter
G1 F4800.000
M106 S229.5
M204 S4000
G1 X62.735 Y54.216 E0.37710
G1 X64.953 Y54.216 E0.06015
G1 X57.315 Y65.834 E0.37710
G1 X55.158 Y65.834 E0.05851
M106 S165.75
M204 S3000
G1 X55.414 Y65.589 F21000.000
G1 X63.273 Y55.094
;TYPE:Gap fill
;WIDTH:0.1176
G1 F6000.000
G1 X63.235 Y55.143 E0.00035
G1 X60.025 Y60.025 E0.03314
G1 X56.816 Y64.907 E0.03314
G1 X56.777 Y64.956 E0.00035
G1 E-1.76000 F3600.000
;WIPE_START
